X: 3529
T: Big Fiddle, The
R: three-two
M: 3/2
K: Dmajor
f3 e edef a3a|bafe dBAB defd|
e3f edBA FAAA|BABc dcde fede:|
f3b babc' d'c'ba|f3b afba fedB|
d3b afba fede|f3b afba fede:|

